usr/share/icons/biglinux-icons-material/scalable/places/favorites_color_green.svg

<?xml version="1.0" encoding="UTF-8" standalone="no"?>
<svg
   width="24"
   height="24"
   viewBox="0 0 24 24"
   fill="none"
   version="1.1"
   id="svg17"
   sodipodi:docname="favorites_color_green.svg"
   inkscape:version="1.3 (0e150ed6c4, 2023-07-21)"
   xmlns:inkscape="http://www.inkscape.org/namespaces/inkscape"
   xmlns:sodipodi="http://sodipodi.sourceforge.net/DTD/sodipodi-0.dtd"
   xmlns="http://www.w3.org/2000/svg"
   xmlns:svg="http://www.w3.org/2000/svg">
  <sodipodi:namedview
     id="namedview17"
     pagecolor="#ffffff"
     bordercolor="#000000"
     borderopacity="0.25"
     inkscape:showpageshadow="2"
     inkscape:pageopacity="0.0"
     inkscape:pagecheckerboard="0"
     inkscape:deskcolor="#d1d1d1"
     inkscape:zoom="16.895833"
     inkscape:cx="8.3156598"
     inkscape:cy="13.879162"
     inkscape:window-width="1280"
     inkscape:window-height="998"
     inkscape:window-x="640"
     inkscape:window-y="0"
     inkscape:window-maximized="0"
     inkscape:current-layer="svg17" />
  <rect
     opacity="0.8125"
     x="1"
     y="1"
     width="22"
     height="22"
     rx="6.6"
     fill="url(#paint0_linear_201_32)"
     id="rect1" />
  <rect
     opacity="0.125"
     x="3"
     y="2.25"
     width="18"
     height="18"
     rx="4.4"
     fill="url(#paint1_linear_201_32)"
     fill-opacity="0.875"
     id="rect2" />
  <rect
     x="3.25"
     y="3.25"
     width="17.5"
     height="17.5"
     rx="4.15"
     fill="#CCCCCC"
     stroke="url(#paint2_linear_201_32)"
     stroke-width="0.5"
     id="rect3" />
  <path
     opacity="0.125"
     d="M1 7.50781C1 5.84664 2.34664 4.5 4.00781 4.5H8.19048C9.265 4.5 10.3068 4.86994 11.1406 5.54762V5.54762C11.9745 6.2253 13.0162 6.59524 14.0908 6.59524H19.9922C21.6534 6.59524 23 7.94188 23 9.60305V15.5C23 19.1451 20.0451 22.1 16.4 22.1H7.6C3.95492 22.1 1 19.1451 1 15.5V7.50781Z"
     fill="url(#paint3_linear_201_32)"
     fill-opacity="0.875"
     id="path3" />
  <path
     d="M 1,8.40781 C 1,6.74664 2.34664,5.4 4.00781,5.4 h 4.18267 c 1.07452,0 2.11632,0.36994 2.95012,1.04762 v 0 c 0.8339,0.67768 1.8756,1.04762 2.9502,1.04762 h 5.9014 C 21.6534,7.49524 23,8.84188 23,10.5031 V 16.4 C 23,20.0451 20.0451,23 16.4,23 H 7.6 C 3.95492,23 1,20.0451 1,16.4 Z"
     fill="url(#paint4_linear_201_32)"
     id="path4"
     style="opacity:0.875;fill:url(#paint4_linear_201_32)" />
  <path
     d="M 22.625,10.5031 V 16.4 c 0,3.438 -2.787,6.225 -6.225,6.225 H 7.6 C 4.16203,22.625 1.375,19.838 1.375,16.4 V 8.40781 C 1.375,6.95375 2.55375,5.775 4.00781,5.775 h 4.18267 c 0.98838,0 1.94662,0.34028 2.71362,0.96363 0.9007,0.73201 2.026,1.13161 3.1867,1.13161 h 5.9014 c 1.454,0 2.6328,1.17875 2.6328,2.63286 z"
     stroke="url(#paint5_linear_201_32)"
     stroke-opacity="0.375"
     stroke-width="0.75"
     stroke-linejoin="round"
     id="path5"
     style="opacity:0.875;stroke:url(#paint5_linear_201_32)" />
  <defs
     id="defs17">
    <linearGradient
       id="paint0_linear_201_32"
       x1="23"
       y1="0.999999"
       x2="1"
       y2="12"
       gradientUnits="userSpaceOnUse">
      <stop
         stop-color="#87DE87"
         id="stop5" />
      <stop
         offset="1"
         stop-color="#217821"
         id="stop6" />
    </linearGradient>
    <linearGradient
       id="paint1_linear_201_32"
       x1="21"
       y1="4"
       x2="3"
       y2="4"
       gradientUnits="userSpaceOnUse">
      <stop
         stop-opacity="0.5"
         id="stop7" />
      <stop
         offset="0.890123"
         id="stop8" />
      <stop
         offset="1"
         stop-opacity="0"
         id="stop9" />
    </linearGradient>
    <linearGradient
       id="paint2_linear_201_32"
       x1="12"
       y1="3"
       x2="11.5"
       y2="8"
       gradientUnits="userSpaceOnUse">
      <stop
         stop-color="#DDDDDD"
         id="stop10" />
      <stop
         offset="1"
         stop-color="#CCCCCC"
         stop-opacity="0"
         id="stop11" />
    </linearGradient>
    <linearGradient
       id="paint3_linear_201_32"
       x1="23"
       y1="9"
       x2="1.01236"
       y2="9.52141"
       gradientUnits="userSpaceOnUse">
      <stop
         stop-opacity="0.5"
         id="stop12" />
      <stop
         offset="1"
         id="stop13" />
    </linearGradient>
    <linearGradient
       id="paint4_linear_201_32"
       x1="23"
       y1="5.4"
       x2="1.42949"
       y2="23.5115"
       gradientUnits="userSpaceOnUse">
      <stop
         stop-color="#AFE9AF"
         id="stop14" />
      <stop
         offset="1"
         stop-color="#2CA02C"
         id="stop15" />
    </linearGradient>
    <linearGradient
       id="paint5_linear_201_32"
       x1="15"
       y1="5.5"
       x2="5.5"
       y2="19.5"
       gradientUnits="userSpaceOnUse">
      <stop
         stop-color="#CAFFCA"
         id="stop16" />
      <stop
         offset="1"
         stop-color="#217821"
         id="stop17" />
    </linearGradient>
    <linearGradient
       id="a"
       x1="-240.47"
       x2="-240.47"
       y1="-60.605"
       y2="-29.025999"
       gradientTransform="matrix(0.96667,0,0,0.95,262.45,67.575)"
       gradientUnits="userSpaceOnUse">
      <stop
         stop-color="#4285db"
         offset="0"
         id="stop13351" />
      <stop
         stop-color="#42b9db"
         offset="1"
         id="stop13353" />
    </linearGradient>
    <linearGradient
       id="b"
       x1="10.583"
       x2="225.69"
       y1="-184.67999"
       y2="-184.67999"
       gradientTransform="matrix(0.11417,0,0,0.11417,18.557,59.5)"
       gradientUnits="userSpaceOnUse">
      <stop
         stop-color="#fafbfb"
         offset="0"
         id="stop13356" />
      <stop
         stop-color="#fafbfb"
         stop-opacity="0"
         offset="1"
         id="stop13358" />
    </linearGradient>
    <linearGradient
       id="c"
       x1="520"
       x2="410"
       y1="-620"
       y2="-620"
       gradientTransform="matrix(0.0302,0,0,0.0302,18.557,59.5)"
       gradientUnits="userSpaceOnUse">
      <stop
         offset="0"
         id="stop13361" />
      <stop
         stop-opacity="0"
         offset="1"
         id="stop13363" />
    </linearGradient>
    <linearGradient
       id="paint7_linear_207_95"
       x1="16.674999"
       y1="9"
       x2="8.2859201"
       y2="19.754999"
       gradientUnits="userSpaceOnUse"
       gradientTransform="translate(-0.46609738)">
      <stop
         stop-color="#0BB1CB"
         id="stop30" />
      <stop
         offset="1"
         stop-color="#006599"
         id="stop31" />
    </linearGradient>
    <linearGradient
       id="paint6_linear_207_44"
       x1="18.439199"
       y1="8.1073503"
       x2="9.3879299"
       y2="21.114599"
       gradientUnits="userSpaceOnUse"
       gradientTransform="matrix(0.93303702,0,0,0.93303702,0.84038255,0.56918821)">
      <stop
         stop-color="#E996B1"
         id="stop20" />
      <stop
         offset="1"
         stop-color="#BC546F"
         id="stop21" />
    </linearGradient>
    <linearGradient
       id="paint8_linear_202_66"
       x1="18.6"
       y1="10.2395"
       x2="9.5206699"
       y2="22.7798"
       gradientUnits="userSpaceOnUse">
      <stop
         stop-color="#3C9BCE"
         id="stop26" />
      <stop
         offset="1"
         stop-color="#00405F"
         id="stop27" />
    </linearGradient>
    <linearGradient
       id="paint9_linear_202_66"
       x1="11.5002"
       y1="7.6416202"
       x2="7.1997099"
       y2="11.942"
       gradientUnits="userSpaceOnUse">
      <stop
         stop-color="#3C9BCE"
         id="stop28" />
      <stop
         offset="1"
         stop-color="#00405F"
         id="stop29-0" />
    </linearGradient>
    <clipPath
       clipPathUnits="userSpaceOnUse"
       id="clipPath11-4">
      <path
         d="M 0,0 H 19 V 19 H 0 Z"
         id="path11-0" />
    </clipPath>
  </defs>
  <g
     id="g2"
     transform="translate(-33.651132)">
    <g
       opacity="0.15"
       id="g12"
       transform="translate(34)">
      <path
         d="m 11.145,14.504 c 0.113,0.359 -0.297,0.656 -0.602,0.434 L 8.695,13.602 C 8.559,13.5 8.375,13.5 8.238,13.598 L 6.383,14.93 C 6.078,15.148 5.668,14.852 5.785,14.492 L 6.488,12.32 C 6.539,12.16 6.484,11.984 6.348,11.887 L 4.512,10.535 C 4.207,10.312 4.363,9.828 4.742,9.828 h 2.281 c 0.168,0 0.317,-0.109 0.372,-0.269 L 8.109,7.395 c 0.121,-0.36 0.625,-0.36 0.743,0 l 0.707,2.167 c 0.054,0.161 0.203,0.27 0.371,0.27 l 2.281,0.016 c 0.379,0 0.531,0.484 0.227,0.703 l -1.844,1.344 c -0.137,0.101 -0.192,0.273 -0.141,0.433 z"
         style="fill:#1a1a1a;fill-opacity:1;fill-rule:nonzero;stroke:none"
         transform="scale(1.3333333)"
         clip-path="url(#clipPath11-4)"
         id="path12" />
    </g>
    <path
       id="path13"
       d="M 49.557333,18.557333 C 49.713333,19.036 49.166666,19.432 48.754666,19.136 L 46.292,17.349333 c -0.177334,-0.130667 -0.428,-0.130667 -0.609334,0 l -2.469333,1.776 C 42.806666,19.416 42.26,19.016 42.412,18.541333 l 0.937333,-2.896 c 0.072,-0.213333 -0.0053,-0.448 -0.182667,-0.582667 L 40.713333,13.26 c -0.406666,-0.296 -0.192,-0.937334 0.308,-0.937334 l 3.041333,-0.0053 c 0.224,0 0.426667,-0.14 0.494667,-0.353333 L 45.516,9.0733331 c 0.156,-0.4746666 0.833333,-0.4746666 0.989333,0.00533 L 47.448,11.969333 c 0.068,0.213333 0.265333,0.358667 0.489333,0.358667 l 3.041333,0.016 c 0.505334,0.0053 0.714667,0.645333 0.308,0.942666 l -2.464,1.792 C 48.645333,15.208 48.568,15.442666 48.636,15.656 Z"
       style="fill:#ffcc00;fill-opacity:1;fill-rule:nonzero;stroke:none;stroke-width:1.33333" />
  </g>
</svg>

<svg xmlns="http://www.w3.org/2000/svg" width="24" height="24" fill="none"><rect width="22" height="22" x="1" y="1" fill="url(#a)" opacity=".813" rx="6.6"/><rect width="18" height="18" x="3" y="2.25" fill="url(#b)" fill-opacity=".875" opacity=".125" rx="4.4"/><rect width="17.5" height="17.5" x="3.25" y="3.25" fill="#CCC" stroke="url(#c)" stroke-width=".5" rx="4.15"/><path fill="url(#d)" fill-opacity=".875" d="M1 7.508A3.008 3.008 0 0 1 4.008 4.5H8.19c1.075 0 2.117.37 2.95 1.048a4.678 4.678 0 0 0 2.95 1.047h5.902A3.008 3.008 0 0 1 23 9.603V15.5a6.6 6.6 0 0 1-6.6 6.6H7.6A6.6 6.6 0 0 1 1 15.5V7.508Z" opacity=".125"/><path fill="url(#e)" d="M1 8.408A3.008 3.008 0 0 1 4.008 5.4H8.19c1.075 0 2.117.37 2.95 1.048a4.678 4.678 0 0 0 2.95 1.047h5.902A3.008 3.008 0 0 1 23 10.503V16.4a6.6 6.6 0 0 1-6.6 6.6H7.6A6.6 6.6 0 0 1 1 16.4Z" style="opacity:.875;fill:url(#e)"/><path stroke="url(#f)" stroke-linejoin="round" stroke-opacity=".375" stroke-width=".75" d="M22.625 10.503V16.4a6.225 6.225 0 0 1-6.225 6.225H7.6A6.225 6.225 0 0 1 1.375 16.4V8.408a2.633 2.633 0 0 1 2.633-2.633H8.19c.989 0 1.947.34 2.714.964a5.053 5.053 0 0 0 3.187 1.131h5.901a2.633 2.633 0 0 1 2.633 2.633z" style="opacity:.875;stroke:url(#f)"/><defs><linearGradient id="a" x1="23" x2="1" y1="1" y2="12" gradientUnits="userSpaceOnUse"><stop stop-color="#87DE87"/><stop offset="1" stop-color="#217821"/></linearGradient><linearGradient id="b" x1="21" x2="3" y1="4" y2="4" gradientUnits="userSpaceOnUse"><stop stop-opacity=".5"/><stop offset=".89"/><stop offset="1" stop-opacity="0"/></linearGradient><linearGradient id="c" x1="12" x2="11.5" y1="3" y2="8" gradientUnits="userSpaceOnUse"><stop stop-color="#DDD"/><stop offset="1" stop-color="#CCC" stop-opacity="0"/></linearGradient><linearGradient id="d" x1="23" x2="1.012" y1="9" y2="9.521" gradientUnits="userSpaceOnUse"><stop stop-opacity=".5"/><stop offset="1"/></linearGradient><linearGradient id="e" x1="23" x2="1.429" y1="5.4" y2="23.512" gradientUnits="userSpaceOnUse"><stop stop-color="#AFE9AF"/><stop offset="1" stop-color="#2CA02C"/></linearGradient><linearGradient id="f" x1="15" x2="5.5" y1="5.5" y2="19.5" gradientUnits="userSpaceOnUse"><stop stop-color="#CAFFCA"/><stop offset="1" stop-color="#217821"/></linearGradient><clipPath id="g" clipPathUnits="userSpaceOnUse"><path d="M0 0h19v19H0Z"/></clipPath></defs><path d="M11.145 14.504a.39.39 0 0 1-.602.434l-1.848-1.336a.386.386 0 0 0-.457-.004L6.383 14.93a.39.39 0 0 1-.598-.438l.703-2.172a.387.387 0 0 0-.14-.433l-1.836-1.352a.391.391 0 0 1 .23-.707h2.281a.395.395 0 0 0 .372-.269l.714-2.164a.39.39 0 0 1 .743 0l.707 2.167c.054.161.203.27.371.27l2.281.016c.379 0 .531.484.227.703l-1.844 1.344a.388.388 0 0 0-.141.433z" clip-path="url(#g)" opacity=".15" style="fill:#1a1a1a;fill-opacity:1;fill-rule:nonzero;stroke:none" transform="matrix(1.33333 0 0 1.33333 .349 0)"/><path d="M49.557 18.557c.156.479-.39.875-.802.579l-2.463-1.787a.523.523 0 0 0-.61 0l-2.469 1.776c-.406.291-.953-.109-.801-.584l.937-2.896a.524.524 0 0 0-.182-.582l-2.454-1.803c-.406-.296-.192-.937.308-.937l3.042-.006c.224 0 .426-.14.494-.353l.959-2.89c.156-.475.833-.475.99.005l.942 2.89a.514.514 0 0 0 .49.359l3.04.016c.506.005.715.645.309.943l-2.464 1.792a.522.522 0 0 0-.187.577Z" style="fill:#fc0;fill-opacity:1;fill-rule:nonzero;stroke:none;stroke-width:1.33333" transform="translate(-33.651)"/></svg>
